src/assets/img/providers-white/aristocrat.svg

<svg width="84" height="28" viewBox="0 0 84 28" fill="none" xmlns="http://www.w3.org/2000/svg">
<path fill-rule="evenodd" clip-rule="evenodd" d="M40.4493 0C42.8379 0 43.4254 0.749281 43.4254 3.35211V24.6478C43.4254 27.2506 42.8379 27.9999 40.4493 27.9999H39.0786C36.7291 27.9999 36.1026 27.2506 36.1026 24.6478V3.35211C36.1026 0.749281 36.7291 0 39.0786 0H40.4493ZM48.6336 0.000105446C50.9831 0.000105446 51.5706 0.749254 51.5706 3.35208V11.0422H48.7902V3.70707C48.7902 3.07612 48.7118 2.83946 48.2029 2.83946H48.007C47.5372 2.83946 47.4587 3.07612 47.4587 3.70707V24.2928C47.4587 24.9237 47.5372 25.1604 48.007 25.1604H48.2029C48.7118 25.1604 48.7902 24.9237 48.7902 24.2928V15.7746H51.5706V24.6478C51.5706 27.2506 50.9831 28 48.6336 28H47.4196C45.07 28 44.4435 27.2506 44.4435 24.6478V3.35208C44.4435 0.749254 45.07 0.000105446 47.4196 0.000105446H48.6336ZM25.8824 5.2723e-05C28.271 5.2723e-05 28.8976 0.749334 28.8976 3.35203V9.89861H26.0782V3.70715C26.0782 3.07606 25.9999 2.83941 25.4909 2.83941H25.3341C24.8644 2.83941 24.786 3.07606 24.786 3.70715V7.57188C24.786 9.3071 24.9034 10.0957 26.3131 12.1069C28.3102 15.0252 28.8976 16.169 28.8976 19.3633V24.6478C28.8976 27.2505 28.271 27.9999 25.8824 27.9999H24.7469C22.3973 27.9999 21.7707 27.2505 21.7707 24.6478V16.721H24.5901V24.2927C24.5901 24.9238 24.6684 25.1605 25.1774 25.1605H25.2951C25.8039 25.1605 25.8824 24.9238 25.8824 24.2927V18.9689C25.8824 17.2732 25.7257 16.4844 24.316 14.4732C22.319 11.5155 21.7707 10.3718 21.7707 7.17745V3.35203C21.7707 0.749334 22.3973 5.2723e-05 24.7469 5.2723e-05H25.8824ZM78.1479 23.6746L78.4625 24.5838C78.2012 24.6497 77.7262 24.9307 77.7262 25.6366C77.7262 26.2108 78.1062 26.8865 79.0446 26.8865C79.9237 26.8865 80.3808 26.3005 80.3808 25.6126C80.3808 24.9129 79.9296 24.6197 79.6921 24.566V25.8399H78.8961V23.6807H81.1471V24.4463L80.7195 24.5061C80.9867 24.6914 81.2362 25.0922 81.2362 25.6964C81.2362 26.8746 80.3749 27.8435 79.0446 27.8435C77.7202 27.8435 76.8472 26.8328 76.8472 25.6366C76.8472 24.4223 77.5599 23.8602 78.1479 23.6746ZM74.0868 0.197108V2.99728H72.4814V27.8027H69.505V2.99728H67.8996V0.197108H74.0868ZM35.5549 0.197108V2.99728H33.9493V27.8027H30.9732V2.99728H29.3677V0.197108H35.5549ZM66.6073 0.197188L68.4869 27.8027H65.4716L65.2366 24.0562H63.5137L63.3179 27.8027H60.6161L62.4956 0.197188H66.6073ZM13.665 0.197095C16.0537 0.197095 16.6804 0.946508 16.6804 3.54947V10.6873C16.6804 12.659 16.2886 13.5661 15.0747 13.8816C16.2886 14.197 16.6804 15.1041 16.6804 17.1153V25.1604C16.6804 26.1462 16.7194 27.0533 17.0326 27.8027H13.939C13.7042 27.3294 13.665 26.3829 13.665 25.4758V16.2478C13.665 15.5774 13.5085 15.3013 12.9602 15.3013H12.3336V27.8027H9.31827V0.197095H13.665ZM6.73405 0.197201L8.61374 27.8027H5.5985L5.36351 24.0563H3.64048L3.44465 27.8027H0.742615L2.62231 0.197201H6.73405ZM56.9741 0.197095C59.3629 0.197095 59.9895 0.946508 59.9895 3.54947V10.6873C59.9895 12.659 59.5978 13.5661 58.3841 13.8816C59.5978 14.197 59.9895 15.1041 59.9895 17.1153V25.1604C59.9895 26.1462 60.0286 27.0533 60.3418 27.8027H57.2483C57.0134 27.3294 56.9741 26.3829 56.9741 25.4758V16.2478C56.9741 15.5774 56.8176 15.3013 56.2694 15.3013H55.6427V27.8027H52.6274V0.197095H56.9741ZM20.7528 0.197214V27.8028H17.7374V0.197214H20.7528ZM82.2684 26.898V27.0654H82.0273V27.6837H81.8535V27.0654H81.6137V26.898H82.2684ZM82.6006 26.8981L82.815 27.4288L83.0187 26.8981H83.2574V27.6837H83.0869V27.163L82.8833 27.6837H82.7424L82.5389 27.1695V27.6837H82.3739V26.8981H82.6006ZM39.8619 2.83948H39.6661C39.1963 2.83948 39.1179 3.07614 39.1179 3.70709V24.2928C39.1179 24.9238 39.1963 25.1604 39.6661 25.1604H39.8619C40.371 25.1604 40.4493 24.9238 40.4493 24.2928V3.70709C40.4493 3.07614 40.371 2.83948 39.8619 2.83948ZM81.1472 18.5666V19.5954L80.2918 19.9006V21.5394L81.1472 21.8442V22.8371L76.9361 21.2403V20.1457L81.1472 18.5666ZM79.4366 20.1996L77.9816 20.708L79.4366 21.2282V20.1996ZM81.1471 12.7946V13.7216H78.3558L81.1471 14.8284V15.5939L78.3914 16.7004H81.1471V17.5975H76.9362V16.3654L79.781 15.1989L76.9362 14.0925V12.7946H81.1471ZM13.0777 3.03671H12.3336V12.462H13.0777C13.5867 12.462 13.665 12.2253 13.665 11.5943V3.90419C13.665 3.27324 13.5867 3.03671 13.0777 3.03671ZM56.3867 3.03671H55.6427V12.462H56.3867C56.8958 12.462 56.9741 12.2253 56.9741 11.5943V3.90419C56.9741 3.27324 56.8958 3.03671 56.3867 3.03671ZM81.1471 10.4677V11.4247H76.9362V10.4677H81.1471ZM81.1471 5.41957V6.41844L78.3795 8.16487H81.1471V9.10384H76.9362V7.95552L79.4961 6.36461H76.9362V5.41957H81.1471ZM78.1479 0.131916L78.4625 1.04108C78.2012 1.1069 77.7262 1.38815 77.7262 2.09377C77.7262 2.66799 78.1062 3.34393 79.0446 3.34393C79.9237 3.34393 80.3808 2.7577 80.3808 2.06989C80.3808 1.37008 79.9296 1.07696 79.6921 1.02327V2.29705H78.8961V0.137984H81.1471V0.903491L80.7195 0.96338C80.9867 1.14872 81.2362 1.54948 81.2362 2.15379C81.2362 3.33193 80.3749 4.30085 79.0446 4.30085C77.7202 4.30085 76.8472 3.29011 76.8472 2.09377C76.8472 0.879614 77.5599 0.317521 78.1479 0.131916Z" fill="white"/>
</svg>

<svg width="84" height="28" fill="none" xmlns="http://www.w3.org/2000/svg"><path fill-rule="evenodd" clip-rule="evenodd" d="M40.45 0c2.388 0 2.975.75 2.975 3.352v21.296c0 2.603-.587 3.352-2.976 3.352h-1.37c-2.35 0-2.976-.75-2.976-3.352V3.352C36.103.75 36.729 0 39.079 0h1.37Zm8.184 0c2.35 0 2.937.75 2.937 3.352v7.69h-2.78V3.707c0-.63-.08-.868-.588-.868h-.196c-.47 0-.548.237-.548.868v20.586c0 .63.078.867.548.867h.196c.509 0 .587-.236.587-.867v-8.518h2.78v8.873c0 2.603-.587 3.352-2.936 3.352H47.42c-2.35 0-2.977-.75-2.977-3.352V3.352C44.444.75 45.07 0 47.42 0h1.214ZM25.882 0c2.389 0 3.016.75 3.016 3.352v6.547h-2.82V3.707c0-.63-.078-.868-.587-.868h-.157c-.47 0-.548.237-.548.868v3.865c0 1.735.117 2.524 1.527 4.535 1.997 2.918 2.585 4.062 2.585 7.256v5.285c0 2.602-.627 3.352-3.016 3.352h-1.135c-2.35 0-2.976-.75-2.976-3.352V16.72h2.82v7.572c0 .63.077.867.586.867h.118c.509 0 .587-.236.587-.867v-5.324c0-1.696-.156-2.485-1.566-4.496-1.997-2.958-2.545-4.101-2.545-7.296V3.352C21.77.749 22.397 0 24.747 0h1.135Zm52.266 23.675.315.909c-.262.066-.737.347-.737 1.053 0 .574.38 1.25 1.319 1.25.879 0 1.336-.587 1.336-1.274 0-.7-.451-.993-.689-1.047v1.274h-.796v-2.16h2.251v.766l-.428.06c.268.185.517.586.517 1.19 0 1.179-.861 2.147-2.191 2.147-1.325 0-2.198-1.01-2.198-2.206 0-1.215.713-1.777 1.3-1.962ZM74.087.197v2.8H72.48v24.806h-2.976V2.997H67.9v-2.8h6.187Zm-38.532 0v2.8h-1.606v24.806h-2.976V2.997h-1.605v-2.8h6.187Zm31.052 0 1.88 27.606h-3.015l-.235-3.747h-1.723l-.196 3.747h-2.702L62.496.197h4.111Zm-52.942 0c2.389 0 3.015.75 3.015 3.352v7.138c0 1.972-.391 2.88-1.605 3.195 1.214.315 1.605 1.222 1.605 3.233v8.045c0 .986.04 1.893.353 2.643h-3.094c-.235-.474-.274-1.42-.274-2.327v-9.228c0-.67-.156-.947-.705-.947h-.626v12.502H9.318V.197h4.347Zm-6.93 0 1.879 27.606H5.598l-.234-3.747H3.64l-.195 3.747H.743L2.623.197h4.111Zm50.24 0c2.388 0 3.014.75 3.014 3.352v7.138c0 1.972-.391 2.88-1.605 3.195 1.214.315 1.605 1.222 1.605 3.233v8.045c0 .986.04 1.893.353 2.643h-3.094c-.235-.474-.274-1.42-.274-2.327v-9.228c0-.67-.156-.947-.705-.947h-.626v12.502h-3.016V.197h4.347Zm-36.222 0v27.606h-3.016V.197h3.016Zm61.515 26.701v.167h-.24v.619h-.175v-.619h-.24v-.167h.655Zm.333 0 .214.53.204-.53h.238v.786h-.17v-.521l-.204.52h-.14l-.204-.514v.515h-.165v-.786h.227ZM39.86 2.84h-.195c-.47 0-.548.237-.548.868v20.586c0 .63.078.867.548.867h.196c.509 0 .587-.236.587-.867V3.707c0-.63-.078-.868-.587-.868Zm41.286 15.728v1.028l-.855.306v1.638l.855.305v.993l-4.21-1.597v-1.094l4.21-1.58Zm-1.71 1.633-1.455.508 1.455.52V20.2Zm1.71-7.405v.927h-2.791l2.791 1.106v.766L78.391 16.7h2.756v.898h-4.21v-1.233L79.78 15.2l-2.845-1.107v-1.297h4.211Zm-68.07-9.758h-.743v9.425h.744c.509 0 .587-.237.587-.868v-7.69c0-.63-.078-.867-.587-.867Zm43.31 0h-.744v9.425h.744c.509 0 .587-.237.587-.868v-7.69c0-.63-.078-.867-.587-.867Zm24.76 7.43v.958h-4.21v-.957h4.21Zm0-5.047v.998L78.38 8.165h2.768v.939h-4.21V7.956l2.56-1.591h-2.56V5.42h4.21Zm-3-5.288.316.91c-.262.065-.737.346-.737 1.052 0 .574.38 1.25 1.319 1.25.879 0 1.336-.586 1.336-1.274 0-.7-.451-.993-.689-1.047v1.274h-.796V.138h2.251v.765l-.428.06c.268.186.517.586.517 1.19 0 1.179-.861 2.148-2.191 2.148-1.325 0-2.198-1.01-2.198-2.207 0-1.214.713-1.776 1.3-1.962Z" fill="#fff"/></svg>
